packages/web-icons/svgs/alphabet_a.svg

<svg viewBox="0 0 50 48" xmlns="http://www.w3.org/2000/svg" class="ridi_icon"><path d="M24.9 13.3h.1l5.3 16.8H19.5l5.4-16.8zM.7 48h12.8l3-8.6h16.7l3 8.6h13l-18-48H18.6L.7 48z"/></svg>

<?xml version="1.0" encoding="UTF-8"?>
<svg width="50px" height="48px" viewBox="0 0 50 48" version="1.1" xmlns="http://www.w3.org/2000/svg">
  <!-- Generator: Sketch 41.2 (35397) - http://www.bohemiancoding.com/sketch -->
  <title>alphabet_a</title>
  <desc>Created with Sketch.</desc>
  <defs></defs>
  <g id="Page-1" stroke="none" stroke-width="1" fill="none" fill-rule="evenodd">
    <g id="alphabet_a" fill="#444444">
      <g id="레이어_1">
        <path d="M24.9,13.3 L25,13.3 L30.3,30.1 L19.5,30.1 L24.9,13.3 L24.9,13.3 Z M0.7,48 L13.5,48 L16.5,39.4 L33.2,39.4 L36.2,48 L49.2,48 L31.2,0 L18.6,0 L0.7,48 Z" id="Shape"></path>
      </g>
    </g>
  </g>
</svg>
